public/assets/images/step3.svg

<svg width="118" height="100" viewBox="0 0 118 100" fill="none" xmlns="http://www.w3.org/2000/svg">
<circle cx="67.5" cy="50" r="46.5" stroke="#FFC669" stroke-width="7"/>
<path d="M18.8333 43V55.5L2 50L18.8333 43Z" fill="#FFC669" stroke="#FFC669"/>
<path d="M65.45 51.4C67.9167 51.4 70 51.6333 71.7 52.1C73.4 52.5333 74.7667 53.1667 75.8 54C76.8333 54.8 77.5833 55.75 78.05 56.85C78.5167 57.9167 78.75 59.1 78.75 60.4C78.75 62.4333 78.2 64.2167 77.1 65.75C76.0333 67.25 74.55 68.4167 72.65 69.25C70.7833 70.0833 68.6333 70.5 66.2 70.5C63.9333 70.5 61.9667 70.15 60.3 69.45C58.6667 68.75 57.2833 67.7833 56.15 66.55C55.05 65.35 54.1833 63.9833 53.55 62.45L56.25 60.6C56.5833 61.4333 57 62.25 57.5 63.05C58.0333 63.85 58.6833 64.6 59.45 65.3C60.2167 65.9667 61.1167 66.5 62.15 66.9C63.1833 67.3 64.3667 67.5 65.7 67.5C67.1667 67.5 68.4167 67.2167 69.45 66.65C70.5167 66.0833 71.3333 65.2667 71.9 64.2C72.4667 63.1333 72.75 61.8333 72.75 60.3C72.75 58.8667 72.4833 57.6333 71.95 56.6C71.45 55.5333 70.6 54.7167 69.4 54.15C68.2333 53.55 66.65 53.25 64.65 53.25H61.35V50.4H64.1C65.7333 50.4 67.1 50.1667 68.2 49.7C69.3333 49.2 70.2 48.4667 70.8 47.5C71.4 46.5 71.7 45.2667 71.7 43.8C71.7 42.4667 71.45 41.3833 70.95 40.55C70.45 39.6833 69.7667 39.05 68.9 38.65C68.0667 38.25 67.0833 38.05 65.95 38.05C64.25 38.05 62.8333 38.4167 61.7 39.15C60.5667 39.85 59.6667 40.7167 59 41.75C59.0333 41.3833 59.1 41.0333 59.2 40.7C59.3 40.3333 59.4167 40.0167 59.55 39.75C59.7167 39.45 59.9167 39.2167 60.15 39.05C60.3833 38.85 60.65 38.7333 60.95 38.7V44.35H55.75V39.5C56.2833 38.8 57.05 38.1167 58.05 37.45C59.0833 36.7833 60.3 36.2333 61.7 35.8C63.1333 35.3333 64.7 35.1 66.4 35.1C68.5 35.1 70.3833 35.4333 72.05 36.1C73.75 36.7333 75.0833 37.6667 76.05 38.9C77.0167 40.1 77.5 41.5667 77.5 43.3C77.5 45.0667 76.9167 46.6 75.75 47.9C74.6167 49.2 73.0667 50.2 71.1 50.9C69.1667 51.6 66.9833 51.95 64.55 51.95L66.8 50.95V52.35L65.45 51.4Z" fill="#FFC669"/>
</svg>

<svg xmlns="http://www.w3.org/2000/svg" width="118" height="100" fill="none"><circle cx="67.5" cy="50" r="46.5" stroke="#FFC669" stroke-width="7"/><path fill="#FFC669" stroke="#FFC669" d="M18.833 43v12.5L2 50z"/><path fill="#FFC669" d="M65.45 51.4q3.7 0 6.25.7 2.55.65 4.1 1.9 1.55 1.2 2.25 2.85.7 1.6.7 3.55 0 3.05-1.65 5.35-1.6 2.25-4.45 3.5-2.8 1.25-6.45 1.25-3.4 0-5.9-1.05-2.45-1.05-4.15-2.9a13.8 13.8 0 0 1-2.6-4.1l2.7-1.85q.5 1.25 1.25 2.45.8 1.2 1.95 2.25a9 9 0 0 0 2.7 1.6q1.55.6 3.55.6 2.2 0 3.75-.85a5.8 5.8 0 0 0 2.45-2.45q.85-1.6.85-3.9 0-2.15-.8-3.7-.75-1.6-2.55-2.45-1.75-.9-4.75-.9h-3.3V50.4h2.75q2.45 0 4.1-.7 1.7-.75 2.6-2.2.9-1.5.9-3.7 0-2-.75-3.25-.75-1.3-2.05-1.9-1.25-.6-2.95-.6-2.55 0-4.25 1.1-1.7 1.05-2.7 2.6.05-.55.2-1.05.15-.55.35-.95.25-.45.6-.7.35-.3.8-.35v5.65h-5.2V39.5q.8-1.05 2.3-2.05 1.55-1 3.65-1.65 2.15-.7 4.7-.7 3.15 0 5.65 1 2.55.95 4 2.8 1.45 1.8 1.45 4.4 0 2.65-1.75 4.6-1.7 1.95-4.65 3-2.9 1.05-6.55 1.05l2.25-1v1.4z"/></svg>
